X: 22997
T: Last Chance, The
R: polka
M: 2/4
K: Adorian
|:E|A>B cd|ea e>d|cA AB/c/|dB G2|
A>B cd|eg e>d|cA BG|A2 A:|
c/d/|ea e>d|ea e>d|cA AB/c/|dB G2|
ea e2|ea ed|cA BG|A2 Ac/d/|
e2 e>d|e/f/a e>d|cA A/B/c/A/|d/d/B G2|
A>B cd|e/f/g e>d|cA BG|A2 A||

